X:1
T:Percivals, 77.77
T:Percivals, 77.77
T:The Methodist Hymnal,1905
T:Public Domain Courtesy of the Cyber Hymnal™
C:The Methodist Hymnal,1905
Z:Public Domain
Z:Courtesy of the Cyber Hymnal™
%%score ( 1 2 ) ( 3 4 )
L:1/8
Q:1/4=110
M:4/4
K:Ab
V:1 treble 
V:2 treble 
V:3 bass 
V:4 bass 
V:1
 [Ec]3 [DB] [CA]2 E2 | [DF]2 [DG]2 [CA]4 | [EB]2 [Ec]2 [EB]3 [EA] | [EG]2 [=DF]2 E4 | %4
 [EA]3 [EA] [EB]2 [Ec]2 | [Ed]2 [Ec]2 [EB]4 | [Ee]3 [Ed] [Ec]2 [FB]2 | [EA]2 [EG]2 [EA]4 |] %8
V:2
 x6 E2 | x8 | x8 | x4 E4 | x8 | x8 | x8 | x8 |] %8
V:3
 [A,,A,]3 [E,G,] [F,A,]2 [C,A,]2 | [D,A,]2 [B,,D,]2 [A,,E,]4 | [E,G,]2 A,2 [E,G,]3 [A,,C] | %3
 [B,,B,]2 (B,A,) [E,G,]4 | [A,,C]3 [A,,C] [E,G,]2 A,2 | [G,B,]2 A,2 [E,G,]4 | %6
 [C,A,]3 [B,,G,] [A,,A,]2 (A,B,) | [E,C]2 [E,D]2 [A,,C]4 |] %8
V:4
 x8 | x8 | x2 A,2 x4 | x2 B,,2 x4 | x6 A,2 | x2 A,2 x4 | x6 D,2 | x8 |] %8

